X: 6
T: The Burnt Old Man
R: jig
M: 6/8
L: 1/8
K: Dmaj
DFA BAF|DFE F2E|DEF ABA|D3 E2F|
DFA B2A|AFA d2e|fed BdA|1 BAF E2F:|2 BAF E2B||
|:ABc ded|DFA B2A|AB/c/d efg|fed B2A|
AFA Bdd|DFA deg|fed BdA|1 BAF E2B:|2 BAF E2F||


